data/sheikah/hyphen.svg

<!-- Generated by IcoMoon.io -->
<svg version="1.1" xmlns="http://www.w3.org/2000/svg" width="1024" height="1024" viewBox="0 0 1024 1024">
<title></title>
<g id="icomoon-ignore">
</g>
<path d="M153.5 153.5h119.5v119.5h-119.5v-119.5zM751 751h119.5v119.5h-119.5v-119.5zM352.5 153.5v119.5h398.5v179h-478l-119.5 119.5v179.5l119.5 119.5h398.5v-119.5h-398.5v-179.5h478l119.5-119.5v-179l-119.5-119.5h-398.5z"></path>
</svg>

<svg xmlns="http://www.w3.org/2000/svg" width="1024" height="1024" viewBox="0 0 1024 1024">
  <title/>
  <path d="M153.5 153.5H273V273H153.5zM751 751h119.5v119.5H751zM352.5 153.5V273H751v179H273L153.5 571.5V751L273 870.5h398.5V751H273V571.5h478L870.5 452V273L751 153.5z"/>
</svg>
